symbolic/64x64/apps/gisto.svg

<svg xmlns="http://www.w3.org/2000/svg" width="64" height="64" version="1">
 <circle style="opacity:0.2" cx="32" cy="33" r="28"/>
 <circle style="fill:#388ebb" cx="32" cy="32" r="28"/>
 <path style="opacity:0.2" d="m 17.070312,23 c -0.995934,0 -1.756781,0.286851 -2.283203,0.857422 -0.526422,0.555555 -0.789062,1.34226 -0.789062,2.363281 v 3.919922 c 0,0.615616 -0.114155,1.085685 -0.341797,1.416016 -0.227642,0.330329 -0.815073,0.572506 -1.199219,0.722656 -0.369918,0.135137 -0.7883,0.209595 -1.257812,0.224609 v 0.945313 c 0.469512,0.03003 0.887893,0.112907 1.257812,0.248047 0.384145,0.135128 0.971577,0.377312 1.199219,0.722656 0.227645,0.330331 0.341797,0.802354 0.341797,1.417969 v 3.919921 c 0,0.990992 0.26264,1.777698 0.789062,2.363282 C 15.313531,42.70668 16.074377,43 17.070312,43 h 1.128907 v -0.96875 h -0.638672 c -0.626017,0 -1.075378,-0.202018 -1.345703,-0.607422 -0.270331,-0.405406 -0.404297,-0.992046 -0.404297,-1.757812 v -3.894532 c 0,-0.735736 -0.193979,-1.345691 -0.578125,-1.826172 -0.384148,-0.495496 -0.980037,-0.816646 -1.791016,-0.966796 v -0.02344 c 0.782521,-0.135143 1.371158,-0.443346 1.769532,-0.923828 0.398374,-0.495495 0.599609,-1.109967 0.599609,-1.845703 v -3.851563 c 0,-0.78078 0.133969,-1.367421 0.404297,-1.757812 0.270325,-0.405405 0.719686,-0.607422 1.345703,-0.607422 h 0.638672 V 23 Z m 28.830079,0 v 0.96875 h 0.638671 c 0.626017,0 1.075379,0.202017 1.345704,0.607422 0.270324,0.390391 0.404296,0.977032 0.404296,1.757812 v 3.851563 c 0,0.735736 0.201236,1.350208 0.59961,1.845703 0.398373,0.480482 0.987011,0.788692 1.769531,0.923828 v 0.02344 c -0.810975,0.15015 -1.406868,0.4713 -1.791015,0.966796 -0.384147,0.480481 -0.578126,1.090436 -0.578126,1.826172 v 3.894532 c 0,0.765766 -0.133968,1.352406 -0.404296,1.757812 -0.270325,0.405404 -0.719687,0.607422 -1.345704,0.607422 H 45.900391 V 43 h 1.128906 c 0.995935,0 1.756781,-0.29332 2.283203,-0.878906 0.526422,-0.585584 0.791016,-1.37229 0.791016,-2.363282 v -3.919921 c 0,-0.615615 0.114154,-1.087638 0.341796,-1.417969 0.227643,-0.345344 0.813123,-0.58752 1.197266,-0.722656 0.369922,-0.135129 0.788301,-0.218016 1.257813,-0.248047 v -0.945313 c -0.469512,-0.01501 -0.887894,-0.08947 -1.257813,-0.224609 -0.384143,-0.15015 -0.969623,-0.392327 -1.197266,-0.722656 -0.227643,-0.330331 -0.341796,-0.8004 -0.341796,-1.416016 v -3.919922 c 0,-1.021021 -0.264594,-1.807726 -0.791016,-2.363281 C 48.786078,23.286851 48.025232,23 47.029297,23 Z m -13.421875,2 c -1.922674,0 -3.236939,0.340423 -4.541016,1.023438 -1.304073,0.668483 -2.290227,1.606325 -2.958984,2.8125 C 24.326479,30.027582 24,31.409033 24,32.978516 c 0,1.613079 0.309137,3.024291 0.927734,4.230468 0.635321,1.191643 1.588739,2.120579 2.859375,2.789063 C 29.074463,40.66653 30.687559,41 32.626953,41 c 1.086729,0 2.072882,-0.08038 2.958985,-0.240234 0.886102,-0.174386 2.244127,-0.427478 3.080078,-0.761719 V 35.539062 C 38.722654,34.374865 39.371628,33.959893 40,33.970703 v -0.916015 h -5.333984 c 0,0 0.0476,0.85718 0.05078,0.916015 C 35.682671,34.011443 36,35.125276 36,35.453125 v 4.041016 c -0.351097,0.08719 -1.116951,0.155618 -1.568359,0.199218 -0.451412,0.0436 -0.917496,0.06445 -1.402344,0.06445 -2.290492,0 -3.905538,-0.58156 -4.841797,-1.74414 -0.936255,-1.177112 -1.521484,-2.85532 -1.521484,-5.035156 0,-2.179837 0.569836,-3.858045 1.472656,-5.035157 0.902823,-1.191644 2.114982,-1.787109 4.238281,-1.787109 0.819226,0 1.470229,0.1449 1.955078,0.435547 0.484847,0.276111 0.828671,0.63044 1.029297,1.066406 0.217352,0.421436 0.326172,0.858094 0.326172,1.308594 0.0047,0 0.0069,-0.0038 0.01172,-0.0039 V 29 h 1.333984 V 28.679688 25.9375 25 h -1.333984 v 0.357422 C 34.85554,25.124845 33.790631,25 32.478516,25 Z"/>
 <path style="fill:#ffffff" d="M 17.070312 22 C 16.074378 22 15.313531 22.286851 14.787109 22.857422 C 14.260687 23.412977 13.998047 24.199682 13.998047 25.220703 L 13.998047 29.140625 C 13.998047 29.756241 13.883892 30.22631 13.65625 30.556641 C 13.428608 30.88697 12.841177 31.129147 12.457031 31.279297 C 12.087113 31.414434 11.668731 31.488892 11.199219 31.503906 L 11.199219 32.449219 C 11.668731 32.479249 12.087112 32.562126 12.457031 32.697266 C 12.841176 32.832394 13.428608 33.074578 13.65625 33.419922 C 13.883895 33.750253 13.998047 34.222276 13.998047 34.837891 L 13.998047 38.757812 C 13.998047 39.748804 14.260687 40.53551 14.787109 41.121094 C 15.313531 41.70668 16.074377 42 17.070312 42 L 18.199219 42 L 18.199219 41.03125 L 17.560547 41.03125 C 16.93453 41.03125 16.485169 40.829232 16.214844 40.423828 C 15.944513 40.018422 15.810547 39.431782 15.810547 38.666016 L 15.810547 34.771484 C 15.810547 34.035748 15.616568 33.425793 15.232422 32.945312 C 14.848274 32.449816 14.252385 32.128666 13.441406 31.978516 L 13.441406 31.955078 C 14.223927 31.819935 14.812564 31.511732 15.210938 31.03125 C 15.609312 30.535755 15.810547 29.921283 15.810547 29.185547 L 15.810547 25.333984 C 15.810547 24.553204 15.944516 23.966563 16.214844 23.576172 C 16.485169 23.170767 16.93453 22.96875 17.560547 22.96875 L 18.199219 22.96875 L 18.199219 22 L 17.070312 22 z M 45.900391 22 L 45.900391 22.96875 L 46.539062 22.96875 C 47.165079 22.96875 47.614441 23.170767 47.884766 23.576172 C 48.15509 23.966563 48.289062 24.553204 48.289062 25.333984 L 48.289062 29.185547 C 48.289062 29.921283 48.490298 30.535755 48.888672 31.03125 C 49.287045 31.511732 49.875683 31.819942 50.658203 31.955078 L 50.658203 31.978516 C 49.847228 32.128666 49.251335 32.449816 48.867188 32.945312 C 48.483041 33.425793 48.289062 34.035748 48.289062 34.771484 L 48.289062 38.666016 C 48.289062 39.431782 48.155094 40.018422 47.884766 40.423828 C 47.614441 40.829232 47.165079 41.03125 46.539062 41.03125 L 45.900391 41.03125 L 45.900391 42 L 47.029297 42 C 48.025232 42 48.786078 41.70668 49.3125 41.121094 C 49.838922 40.53551 50.103516 39.748804 50.103516 38.757812 L 50.103516 34.837891 C 50.103516 34.222276 50.21767 33.750253 50.445312 33.419922 C 50.672955 33.074578 51.258435 32.832402 51.642578 32.697266 C 52.0125 32.562137 52.430879 32.47925 52.900391 32.449219 L 52.900391 31.503906 C 52.430879 31.488896 52.012497 31.414441 51.642578 31.279297 C 51.258435 31.129147 50.672955 30.88697 50.445312 30.556641 C 50.217669 30.22631 50.103516 29.756241 50.103516 29.140625 L 50.103516 25.220703 C 50.103516 24.199682 49.838922 23.412977 49.3125 22.857422 C 48.786078 22.286851 48.025232 22 47.029297 22 L 45.900391 22 z M 32.478516 24 C 30.555842 24 29.241577 24.340423 27.9375 25.023438 C 26.633427 25.691921 25.647273 26.629763 24.978516 27.835938 C 24.326479 29.027582 24 30.409033 24 31.978516 C 24 33.591595 24.309137 35.002807 24.927734 36.208984 C 25.563055 37.400627 26.516473 38.329563 27.787109 38.998047 C 29.074463 39.66653 30.687559 40 32.626953 40 C 33.713682 40 34.699835 39.91962 35.585938 39.759766 C 36.47204 39.58538 37.830065 39.332288 38.666016 38.998047 L 38.666016 34.539062 C 38.722654 33.374865 39.371628 32.959893 40 32.970703 L 40 32.054688 L 34.666016 32.054688 C 34.666016 32.054688 34.713617 32.911868 34.716797 32.970703 C 35.682671 33.011443 36 34.125276 36 34.453125 L 36 38.494141 C 35.648903 38.581331 34.883049 38.649759 34.431641 38.693359 C 33.980229 38.736959 33.514145 38.757812 33.029297 38.757812 C 30.738805 38.757812 29.123759 38.176252 28.1875 37.013672 C 27.251245 35.83656 26.666016 34.158352 26.666016 31.978516 C 26.666016 29.798679 27.235852 28.120471 28.138672 26.943359 C 29.041495 25.751715 30.253654 25.15625 32.376953 25.15625 C 33.196179 25.15625 33.847182 25.30115 34.332031 25.591797 C 34.816878 25.867908 35.160702 26.222237 35.361328 26.658203 C 35.57868 27.079639 35.6875 27.516297 35.6875 27.966797 C 35.6922 27.966797 35.694449 27.962991 35.699219 27.962891 L 35.699219 28 L 37.033203 28 L 37.033203 27.679688 L 37.033203 24.9375 L 37.033203 24 L 35.699219 24 L 35.699219 24.357422 C 34.85554 24.124845 33.790631 24 32.478516 24 z"/>
 <path style="fill:#ffffff;opacity:0.1" d="M 32 4 A 28 28 0 0 0 4 32 A 28 28 0 0 0 4.0214844 32.585938 A 28 28 0 0 1 32 5 A 28 28 0 0 1 59.978516 32.414062 A 28 28 0 0 0 60 32 A 28 28 0 0 0 32 4 z"/>
</svg>

<svg xmlns="http://www.w3.org/2000/svg" width="64" height="64" version="1"><circle style="opacity:.2" cx="32" cy="33" r="28"/><circle style="fill:#388ebb" cx="32" cy="32" r="28"/><path style="opacity:.2" d="M17.07 23c-.996 0-1.756.287-2.283.857-.526.556-.789 1.343-.789 2.364v3.92c0 .615-.114 1.085-.342 1.416-.227.33-.815.572-1.199.722-.37.135-.788.21-1.258.225v.945c.47.03.888.113 1.258.248.384.135.972.378 1.2.723.227.33.341.802.341 1.418v3.92c0 .99.263 1.778.79 2.363.526.586 1.286.879 2.282.879h1.13v-.969h-.64c-.625 0-1.075-.202-1.345-.607-.27-.406-.404-.992-.404-1.758v-3.895c0-.735-.194-1.345-.579-1.826-.384-.495-.98-.816-1.79-.966v-.024c.782-.135 1.37-.443 1.769-.924.398-.495.6-1.11.6-1.845v-3.852c0-.78.134-1.367.404-1.758.27-.405.72-.607 1.346-.607h.638V23zm28.83 0v.969h.64c.625 0 1.074.202 1.345.607.27.39.404.977.404 1.758v3.852c0 .735.201 1.35.6 1.845.398.48.987.789 1.77.924v.024c-.812.15-1.408.47-1.792.966-.384.48-.578 1.09-.578 1.826v3.895c0 .766-.134 1.352-.404 1.758-.27.405-.72.607-1.346.607H45.9V43h1.13c.995 0 1.756-.293 2.282-.879.527-.585.792-1.372.792-2.363v-3.92c0-.616.114-1.088.341-1.418.228-.345.813-.588 1.198-.723a4.49 4.49 0 0 1 1.257-.248v-.945a4.026 4.026 0 0 1-1.257-.225c-.385-.15-.97-.392-1.198-.722-.227-.33-.341-.8-.341-1.416v-3.92c0-1.021-.265-1.808-.792-2.364-.526-.57-1.287-.857-2.283-.857zM32.48 25c-1.923 0-3.237.34-4.542 1.023-1.304.669-2.29 1.607-2.958 2.813-.653 1.192-.979 2.573-.979 4.143 0 1.613.31 3.024.928 4.23.635 1.192 1.588 2.12 2.86 2.789 1.286.669 2.9 1.002 4.839 1.002 1.087 0 2.073-.08 2.959-.24.886-.175 2.244-.428 3.08-.762v-4.459c.057-1.164.706-1.58 1.334-1.568v-.916h-5.334s.048.857.05.916c.967.04 1.284 1.154 1.284 1.482v4.041c-.351.087-1.117.156-1.568.2-.452.043-.918.064-1.403.064-2.29 0-3.905-.582-4.842-1.744-.936-1.177-1.521-2.856-1.521-5.035 0-2.18.57-3.859 1.473-5.036.902-1.191 2.115-1.787 4.238-1.787.82 0 1.47.145 1.955.436.485.276.829.63 1.03 1.066.217.422.325.858.325 1.309.005 0 .007-.004.012-.004V29h1.334v-4H35.7v.357c-.843-.232-1.908-.357-3.22-.357z"/><path style="fill:#fff" d="M17.07 22c-.996 0-1.756.287-2.283.857-.526.556-.789 1.343-.789 2.364v3.92c0 .615-.114 1.085-.342 1.416-.227.33-.815.572-1.199.722-.37.135-.788.21-1.258.225v.945c.47.03.888.113 1.258.248.384.135.972.378 1.2.723.227.33.341.802.341 1.418v3.92c0 .99.263 1.778.79 2.363.526.586 1.286.879 2.282.879h1.13v-.969h-.64c-.625 0-1.075-.202-1.345-.607-.27-.406-.404-.992-.404-1.758v-3.895c0-.735-.194-1.345-.579-1.826-.384-.495-.98-.816-1.79-.966v-.024c.782-.135 1.37-.443 1.769-.924.398-.495.6-1.11.6-1.845v-3.852c0-.78.134-1.367.404-1.758.27-.405.72-.607 1.346-.607h.638V22H17.07zm28.83 0v.969h.64c.625 0 1.074.202 1.345.607.27.39.404.977.404 1.758v3.852c0 .735.201 1.35.6 1.845.398.48.987.789 1.77.924v.024c-.812.15-1.408.47-1.792.966-.384.48-.578 1.09-.578 1.826v3.895c0 .766-.134 1.352-.404 1.758-.27.405-.72.607-1.346.607H45.9V42h1.13c.995 0 1.756-.293 2.282-.879.527-.585.792-1.372.792-2.363v-3.92c0-.616.114-1.088.341-1.418.228-.345.813-.588 1.198-.723a4.49 4.49 0 0 1 1.257-.248v-.945a4.025 4.025 0 0 1-1.257-.225c-.385-.15-.97-.392-1.198-.722-.227-.33-.341-.8-.341-1.416v-3.92c0-1.021-.265-1.808-.791-2.364-.527-.57-1.288-.857-2.284-.857H45.9zM32.48 24c-1.923 0-3.237.34-4.541 1.023-1.305.669-2.29 1.607-2.96 2.813-.652 1.192-.978 2.573-.978 4.143 0 1.613.31 3.024.928 4.23.635 1.192 1.588 2.12 2.86 2.789 1.286.669 2.9 1.002 4.839 1.002 1.087 0 2.073-.08 2.959-.24.886-.175 2.244-.428 3.08-.762v-4.459c.057-1.164.706-1.58 1.334-1.568v-.916h-5.334s.048.857.05.916c.967.04 1.284 1.154 1.284 1.482v4.041c-.351.087-1.117.156-1.568.2-.452.043-.918.064-1.403.064-2.29 0-3.905-.582-4.842-1.744-.936-1.177-1.521-2.856-1.521-5.035 0-2.18.57-3.859 1.473-5.036.902-1.191 2.115-1.787 4.238-1.787.82 0 1.47.145 1.955.436.485.276.829.63 1.03 1.066.217.422.325.858.325 1.309.005 0 .007-.004.012-.004V28h1.334v-4H35.7v.357c-.843-.232-1.908-.357-3.22-.357z"/><path style="fill:#fff;opacity:.1" d="M32 4A28 28 0 0 0 4 32a28 28 0 0 0 .021.586A28 28 0 0 1 32 5a28 28 0 0 1 27.979 27.414A28 28 0 0 0 60 32 28 28 0 0 0 32 4z"/></svg>
